X: 1
T: Donald Blue
N: Ali Bain's version
S: Alistair C
Z: 1998 by John Chambers <jc@trillian.mit.edu>
R: Reel
O: Shetland
M: 4/4
K: D
|: "D"dB AF DF AB | dB AF "A7"E2 "D"D2 | dB AF DF Ad | "G"BB2A B2 "(D)"d2 :|
|: "D"AB de fa fd | fa fd "G"ed Bd | "D"AB de fa fd | "G"BB2A B2"(D)"d2 :|
